X: 1
T: CALE SMITH'S PASTIME -- REEL
B: Ryan's Mammoth Collection of Fiddle Tunes
R: reel
M: 2/4
L: 1/16
Z: Contributed 20010905154019 by John Chambers jmchambers:rcn.net
K: A
uE2 \
| .A2(Ac) .e2(ce) | fgaf fece | edBd dcAc | BcBA GEFG |
| .A2(Ac) .e2(ce) | fgaf fece | edBd dcAc | BEGB A2  :|
|: u"2"e2 \
| "1"a2(ab) "3"c'ae"4"c | {g}"3"f^efg "1"aece \
| "1"a2(ab) c'aec | "3"fagb "1"a2(ab) |
| c'ba"4"g agfe | fgaf fec"3"B \
| "2"A2(Ac) "2"e2(ce) | "3"fa"4"gb a2 :|
